X: 373
T: Scotch Militia Reel
%R: strathspey
Z: 2014 John Chambers <jc:trillian.mit.edu>
B: Preston "Twenty four Country Dances for the Year 1799" p.167 #1
F: http://www.vwml.org/browse/browse-collections-dance-tune-books/browse-prestons1799# 2014-8-10
N: I've interpreted the long 2-bar slurs as 1st & 2d endings, although there are no "1" and "2" markings.
M: C|
L: 1/16
K: A
A2 |\
A,3A (cde2) {d}c4 A2c2 | d3B dcBA G2B4d2 |\
c3A (cde2) {d}c4 A3c | d2B2e2B2 c2A4 :: g2 |\
a3e agfg a3fe3c |
d3B dcBA G2B4e2 |\
[1 a3e agfg a3fe3c | d2B2e2d2 c2A2 A2 :|\
[2 c3ed3f e3ag3b | a2e2 {g}f2ed c2A2 A2 |]
% - - - - - - - - - - - - - - - - - - - - - - - - -
%%begintext align
%% 1st & 2d Cu: set & change sides .| set and
%% change sides back again :| lead down two Cu:
%% foot it :|. lead up again & cast of :|:
%%endtext
% - - - - - - - - - - - - - - - - - - - - - - - - -

%%sep 1 1 500
%%sep 1 1 500
